X:217
T: Ritou luo shan
N: C1709
O: China,Taiwan, Xinzhu, Zhongli, Taoyuan
S: IV, 643]
R: Xiaodiao, Pingban diao, Caicha diao]
M: 2/4
L: 1/16
K: D
F2F2A4 | B2FA-A4 | E2FED2B,2 | A2BFA4 | D2EFEDB,2 | D8 |
A2F2A4 | D2EFEDB,2 | A,2A,6 |
B,2AFEFA2 | B,2CB,A,2A,2- | A,8 |
A2F6 | E2FED4 | A,2A,6 |
D2E2F2A2 | ADEFEDB,2 | D8 |
B,2F2A,4 | D2EFEDB,2 | A,2A,6 |
B,2D2F2A2 | B,2B,6 | A,8

@@@ Tune index: 6772
